symbolic/32x32/apps/i-nex.svg

<svg xmlns="http://www.w3.org/2000/svg" width="32" height="32" version="1.1">
 <rect style="opacity:0.2" width="29" height="29" x="2" y="2" rx="1.45" ry="1.45"/>
 <path style="fill:#2b855b" d="m 3.45,1 h 26.1 C 30.3533,1 31,1.6467 31,2.45 v 26.1 C 31,29.3533 30.3533,30 29.55,30 H 8.0129535 L 4.0481848,29.22236 C 3.2599043,29.067749 3.477484,28.903488 3.2561881,28.13127 L 2,23.747773 V 2.45 C 2,1.6467 2.6467,1 3.45,1 Z"/>
 <path style="fill:#ffb923" d="M 2,23.633594 V 28.55 C 2,29.3533 2.6467,30 3.45,30 h 4.9164062 z"/>
 <rect style="opacity:0.2" width="21" height="21" x="6" y="6" rx="1.05" ry="1.05"/>
 <rect style="fill:#c1c1c1" width="21" height="21" x="6" y="5" rx="1.05" ry="1.05"/>
 <rect style="fill:#4e4e4e" width="3" height="10" x="15" y="13"/>
 <rect style="fill:#4e4e4e" width="3" height="3" x="15" y="8"/>
 <path style="opacity:0.1;fill:#ffffff" d="M 3.4492188 1 C 2.6459187 1 2 1.6459187 2 2.4492188 L 2 3.4492188 C 2 2.6459187 2.6459187 2 3.4492188 2 L 29.550781 2 C 30.354081 2 31 2.6459187 31 3.4492188 L 31 2.4492188 C 31 1.6459187 30.354081 1 29.550781 1 L 3.4492188 1 z"/>
 <path style="opacity:0.1" d="M 2 23.632812 L 2 24.632812 L 7.3671875 30 L 8.3671875 30 L 2 23.632812 z"/>
 <path style="fill:#ffffff;opacity:0.2" d="M 7.0507812 5 C 6.4690812 5 6 5.4690812 6 6.0507812 L 6 7.0507812 C 6 6.4690812 6.4690812 6 7.0507812 6 L 25.949219 6 C 26.530919 6 27 6.4690812 27 7.0507812 L 27 6.0507812 C 27 5.4690812 26.530919 5 25.949219 5 L 7.0507812 5 z"/>
</svg>

<svg xmlns="http://www.w3.org/2000/svg" width="32" height="32"><rect style="opacity:.2" width="29" height="29" x="2" y="2" rx="1.45" ry="1.45"/><path style="fill:#2b855b" d="M3.45 1h26.1c.803 0 1.45.647 1.45 1.45v26.1c0 .803-.647 1.45-1.45 1.45H8.013l-3.965-.778c-.788-.154-.57-.319-.792-1.09L2 23.747V2.45C2 1.647 2.647 1 3.45 1z"/><path style="fill:#ffb923" d="M2 23.634v4.916c0 .803.647 1.45 1.45 1.45h4.916z"/><rect style="opacity:.2" width="21" height="21" x="6" y="6" rx="1.05" ry="1.05"/><rect style="fill:#c1c1c1" width="21" height="21" x="6" y="5" rx="1.05" ry="1.05"/><path style="fill:#4e4e4e" d="M15 13h3v10h-3zM15 8h3v3h-3z"/><path style="opacity:.1;fill:#fff" d="M3.45 1C2.645 1 2 1.646 2 2.45v1C2 2.645 2.646 2 3.45 2h26.1c.804 0 1.45.646 1.45 1.45v-1C31 1.645 30.354 1 29.55 1H3.45z"/><path style="opacity:.1" d="M2 23.633v1L7.367 30h1L2 23.633z"/><path style="fill:#fff;opacity:.2" d="M7.05 5C6.47 5 6 5.47 6 6.05v1C6 6.47 6.47 6 7.05 6h18.9c.58 0 1.05.47 1.05 1.05v-1C27 5.47 26.53 5 25.95 5H7.05z"/></svg>
